icons/plexis/48/frogatto.svg

<svg viewBox="0 0 48 48" xmlns="http://www.w3.org/2000/svg" xmlns:xlink="http://www.w3.org/1999/xlink">
  <linearGradient id="a" gradientTransform="matrix(0 -1 1 0 -.0000015 47.999998)" gradientUnits="userSpaceOnUse" x1="1" x2="47">
    <stop offset="0" stop-color="#3d3d3d"/>
    <stop offset="1" stop-color="#474747"/>
  </linearGradient>
  <path d="m47 24c0 22.703-.297 23-23 23-22.703 0-23-.297-23-23 0-22.703.297-23 23-23 22.703 0 23 .297 23 23z" fill="url(#a)"/>
  <path d="m24.36 12.208c-.741.251-1.369.713-1.862 1.266-.192.217-.334.404-.464.533-.124.119-.226.171-.27.18h-.007c-.084.018-.156.019-.291-.021h-.007l-.007-.007c-.297-.081-.616-.286-.997-.554-.385-.271-.841-.596-1.426-.782-.778-.242-1.599-.142-2.305.173h-.007c-.688.318-1.243.827-1.654 1.412-.821 1.161-1.075 2.535-1.239 3.765-.155 1.126-.287 2.37.062 3.619.091.347.204.649.277.9.075.255.112.48.111.678-.026.345-.241.752-.567 1.163v.007l-.007.007c-.321.422-.766.892-1.093 1.529l-.007.007v.007c-.494 1.019-.478 2.175-.159 3.19v.007c.431 1.318 1.317 2.317 2.125 3.218 1.023 1.146 2.212 1.698 3.377 2.284.497.229 1.016.444 1.557.623 2.786.935 5.806.682 8.547-.062.533-.128 1.141-.344 1.613-.498 1.708-.601 3.414-1.482 4.664-2.92.63-.72 1.14-1.57 1.419-2.519.27-.944.315-1.976.048-2.955-.179-.652-.484-1.231-.81-1.758v-.007c-.523-.836-1.16-1.626-1.965-2.27-.807-.645-1.768-1.125-2.824-1.301-.443-.084-.789-.103-1.01-.173h-.014l-.014-.007c-.193-.009-.259-.176-.388-.263-.038-.145.005-.269.007-.381.047-.19.147-.424.256-.72.549-1.499.515-3.153.007-4.637h-.007c-.183-.528-.426-1.068-.803-1.55l-.007-.007c-.382-.501-.888-.915-1.488-1.156h-.007c-.772-.307-1.619-.276-2.367-.021" opacity=".1" transform="translate(1 1)"/>
  <g transform="translate(.00011243)">
    <path d="m4.468 9.273c.219.132.448.252.681.359.137.063.277.122.42.169.733.246 1.545.182 2.293-.021.15-.04.298-.086.441-.137.463-.163.912-.398 1.231-.765.161-.184.288-.399.357-.634.067-.234.077-.488.013-.723-.043-.157-.118-.304-.204-.443-.139-.222-.305-.428-.509-.591-.204-.163-.446-.282-.704-.325-.104-.02-.212-.022-.313-.054-.051-.014-.097-.036-.14-.067-.043-.031-.079-.073-.101-.121-.033-.073-.03-.159-.012-.237.019-.078.052-.152.08-.228.137-.374.129-.795 0-1.172-.047-.136-.109-.268-.197-.38-.088-.116-.203-.208-.336-.261-.165-.066-.357-.062-.527-.004-.17.057-.319.166-.439.301-.047.053-.089.109-.139.159-.051.05-.11.093-.18.107-.062.013-.122.007-.183-.011-.128-.035-.237-.111-.345-.187-.108-.076-.219-.153-.345-.193-.164-.051-.346-.031-.505.04-.158.073-.289.191-.387.331-.198.28-.268.633-.313.971-.043.312-.074.635.011.939.022.085.054.169.078.252.025.085.043.172.041.26-.011.164-.101.313-.205.444-.099.13-.215.255-.29.401-.111.229-.11.505-.033.75.105.321.331.584.557.836.089.099.181.197.272.294" fill="#090" stroke="#452f58" stroke-width=".409" transform="scale(3.543307)"/>
    <path d="m28.02 21.297c-.656 1.426-1.723 2.367-2.941 2.367-1.078 0-2.027-.754-2.695-1.91-.605 2.41-2.109 4.113-3.883 4.113-1.23 0-2.328-.828-3.09-2.137-1.199 1.109-1.926 2.473-1.926 3.93 0 3.781 4.734 6.828 10.582 6.828 5.848 0 10.582-3.047 10.582-6.828 0-2.879-2.738-5.355-6.625-6.367m-.004.004" fill="#6c3"/>
    <path d="m14.751 19.407c0 3.203 1.684 5.781 3.75 5.781 1.965 0 3.563-2.336 3.719-5.313.477 1.727 1.59 2.938 2.875 2.938 1.555 0 2.809-1.754 3.03-4.063h-13.31" fill="#f9f9f9"/>
    <path d="m25.418 20.13c0 .746-.484 1.348-1.082 1.348-.598 0-1.082-.602-1.082-1.348 0-.746.484-1.352 1.082-1.352.598 0 1.082.605 1.082 1.352m0 0" fill="#705ba1"/>
    <path d="m25.09 13.215c-1.598 0-2.902 1.891-3.063 4.301-.508-2.273-1.875-3.91-3.512-3.91-1.914 0-3.472 2.272-3.695 5.144h13.31c.02-.234.074-.488.074-.73 0-2.652-1.402-4.805-3.113-4.805" fill="#6c3"/>
    <path d="m21.797 20.523c0 .746-.484 1.352-1.082 1.352-.598 0-1.082-.605-1.082-1.352 0-.746.484-1.348 1.082-1.348.598 0 1.082.602 1.082 1.348m0 0" fill="#705ba1"/>
    <path d="m42.86 13.195l2.947-2.586 3.234 3.521 3.525-3.165 3.238 3.887 4.315-3.887 3.164 2.374 2.301-2.299 2.73 1.981" fill="none" stroke="#452f58" transform="matrix(.791266 0 0 .735645 -19.855015 20.551191)"/>
  </g>
</svg>

<svg xmlns="http://www.w3.org/2000/svg" viewBox="0 0 48 48">
 <defs>
  <linearGradient id="linearGradient3764" x1="1" x2="47" gradientUnits="userSpaceOnUse" gradientTransform="matrix(0,-1,1,0,-1.5e-6,47.999998)">
   <stop style="stop-color:#3d3d3d;stop-opacity:1"/>
   <stop offset="1" style="stop-color:#474747;stop-opacity:1"/>
  </linearGradient>
 </defs>
 <g>
  
  
  
 </g>
 <g>
  <path d="m 47,24 C 47,46.703 46.703,47 24,47 1.297,47 1,46.703 1,24 1,1.297 1.297,1 24,1 46.703,1 47,1.297 47,24 z" style="fill:url(#linearGradient3764);fill-opacity:1"/>
 </g>
 <g>
  <g>
   <g transform="translate(1,1)">
    <g style="opacity:0.1">
     <!-- color: #474747 -->
     <g>
      <path d="m 24.36 12.208 c -0.741 0.251 -1.369 0.713 -1.862 1.266 -0.192 0.217 -0.334 0.404 -0.464 0.533 -0.124 0.119 -0.226 0.171 -0.27 0.18 l -0.007 0 c -0.084 0.018 -0.156 0.019 -0.291 -0.021 l -0.007 0 -0.007 -0.007 c -0.297 -0.081 -0.616 -0.286 -0.997 -0.554 -0.385 -0.271 -0.841 -0.596 -1.426 -0.782 -0.778 -0.242 -1.599 -0.142 -2.305 0.173 l -0.007 0 c -0.688 0.318 -1.243 0.827 -1.654 1.412 -0.821 1.161 -1.075 2.535 -1.239 3.765 -0.155 1.126 -0.287 2.37 0.062 3.619 0.091 0.347 0.204 0.649 0.277 0.9 0.075 0.255 0.112 0.48 0.111 0.678 -0.026 0.345 -0.241 0.752 -0.567 1.163 l 0 0.007 -0.007 0.007 c -0.321 0.422 -0.766 0.892 -1.093 1.529 l -0.007 0.007 0 0.007 c -0.494 1.019 -0.478 2.175 -0.159 3.19 l 0 0.007 c 0.431 1.318 1.317 2.317 2.125 3.218 1.023 1.146 2.212 1.698 3.377 2.284 0.497 0.229 1.016 0.444 1.557 0.623 2.786 0.935 5.806 0.682 8.547 -0.062 0.533 -0.128 1.141 -0.344 1.613 -0.498 1.708 -0.601 3.414 -1.482 4.664 -2.92 0.63 -0.72 1.14 -1.57 1.419 -2.519 0.27 -0.944 0.315 -1.976 0.048 -2.955 -0.179 -0.652 -0.484 -1.231 -0.81 -1.758 l 0 -0.007 c -0.523 -0.836 -1.16 -1.626 -1.965 -2.27 -0.807 -0.645 -1.768 -1.125 -2.824 -1.301 -0.443 -0.084 -0.789 -0.103 -1.01 -0.173 l -0.014 0 -0.014 -0.007 c -0.193 -0.009 -0.259 -0.176 -0.388 -0.263 -0.038 -0.145 0.005 -0.269 0.007 -0.381 0.047 -0.19 0.147 -0.424 0.256 -0.72 0.549 -1.499 0.515 -3.153 0.007 -4.637 l -0.007 0 c -0.183 -0.528 -0.426 -1.068 -0.803 -1.55 l -0.007 -0.007 c -0.382 -0.501 -0.888 -0.915 -1.488 -1.156 l -0.007 0 c -0.772 -0.307 -1.619 -0.276 -2.367 -0.021" mix-blend-mode="normal" isolation="auto" white-space="normal" solid-opacity="1" solid-color="#000000" style="visibility:visible;shape-rendering:auto;color-interpolation-filters:linearRGB;fill:#000;opacity:1;image-rendering:auto;fill-opacity:1;stroke:none;display:inline;color:#000;fill-rule:nonzero;color-rendering:auto;color-interpolation:sRGB"/>
     </g>
    </g>
   </g>
  </g>
 </g>
 <g transform="translate(1.1242749e-4,0)">
  <g>
   <!-- color: #474747 -->
   <g>
    <path d="M 4.468,9.273 C 4.687,9.405 4.916,9.525 5.149,9.632 5.286,9.695 5.426,9.754 5.569,9.801 6.302,10.047 7.114,9.983 7.862,9.78 8.012,9.74 8.16,9.694 8.303,9.643 8.766,9.48 9.215,9.245 9.534,8.878 9.695,8.694 9.822,8.479 9.891,8.244 9.958,8.01 9.968,7.756 9.904,7.521 9.861,7.364 9.786,7.217 9.7,7.078 9.561,6.856 9.395,6.65 9.191,6.487 8.987,6.324 8.745,6.205 8.487,6.162 8.383,6.142 8.275,6.14 8.174,6.108 8.123,6.094 8.077,6.072 8.034,6.041 7.991,6.01 7.955,5.968 7.933,5.92 7.9,5.847 7.903,5.761 7.921,5.683 7.94,5.605 7.973,5.531 8.001,5.455 8.138,5.081 8.13,4.66 8.001,4.283 7.954,4.147 7.892,4.015 7.804,3.903 7.716,3.787 7.601,3.695 7.468,3.642 7.303,3.576 7.111,3.58 6.941,3.638 6.771,3.695 6.622,3.804 6.502,3.939 6.455,3.992 6.413,4.048 6.363,4.098 6.312,4.148 6.253,4.191 6.183,4.205 6.121,4.218 6.061,4.212 6,4.194 5.872,4.159 5.763,4.083 5.655,4.007 5.547,3.931 5.436,3.854 5.31,3.814 5.146,3.763 4.964,3.783 4.805,3.854 4.647,3.927 4.516,4.045 4.418,4.185 4.22,4.465 4.15,4.818 4.105,5.156 4.062,5.468 4.031,5.791 4.116,6.095 4.138,6.18 4.17,6.264 4.194,6.347 4.219,6.432 4.237,6.519 4.235,6.607 4.224,6.771 4.134,6.92 4.03,7.051 3.931,7.181 3.815,7.306 3.74,7.452 3.629,7.681 3.63,7.957 3.707,8.202 3.812,8.523 4.038,8.786 4.264,9.038 4.353,9.137 4.445,9.235 4.536,9.332" transform="scale(3.543307,3.543307)" style="stroke-opacity:1;fill:#090;stroke-miterlimit:4;fill-opacity:1;stroke:#452f58;fill-rule:nonzero;stroke-linecap:butt;stroke-linejoin:miter;stroke-width:0.409"/>
    <path d="m 28.02 21.297 c -0.656 1.426 -1.723 2.367 -2.941 2.367 -1.078 0 -2.027 -0.754 -2.695 -1.91 -0.605 2.41 -2.109 4.113 -3.883 4.113 -1.23 0 -2.328 -0.828 -3.09 -2.137 -1.199 1.109 -1.926 2.473 -1.926 3.93 0 3.781 4.734 6.828 10.582 6.828 5.848 0 10.582 -3.047 10.582 -6.828 0 -2.879 -2.738 -5.355 -6.625 -6.367 m -0.004 0.004" style="fill:#6c3;fill-opacity:1;stroke:none;fill-rule:nonzero"/>
    <path d="m 14.751 19.407 c 0 3.203 1.684 5.781 3.75 5.781 1.965 0 3.563 -2.336 3.719 -5.313 0.477 1.727 1.59 2.938 2.875 2.938 1.555 0 2.809 -1.754 3.03 -4.063 l -13.31 0" style="fill:#f9f9f9;fill-opacity:1;stroke:none;fill-rule:nonzero"/>
    <path d="m 25.418 20.13 c 0 0.746 -0.484 1.348 -1.082 1.348 -0.598 0 -1.082 -0.602 -1.082 -1.348 0 -0.746 0.484 -1.352 1.082 -1.352 0.598 0 1.082 0.605 1.082 1.352 m 0 0" style="fill:#705ba1;fill-opacity:1;stroke:none;fill-rule:nonzero"/>
    <path d="m 25.09 13.215 c -1.598 0 -2.902 1.891 -3.063 4.301 -0.508 -2.273 -1.875 -3.91 -3.512 -3.91 -1.914 0 -3.472 2.272 -3.695 5.144 l 13.31 0 c 0.02 -0.234 0.074 -0.488 0.074 -0.73 0 -2.652 -1.402 -4.805 -3.113 -4.805" style="fill:#6c3;fill-opacity:1;stroke:none;fill-rule:nonzero"/>
    <path d="m 21.797 20.523 c 0 0.746 -0.484 1.352 -1.082 1.352 -0.598 0 -1.082 -0.605 -1.082 -1.352 0 -0.746 0.484 -1.348 1.082 -1.348 0.598 0 1.082 0.602 1.082 1.348 m 0 0" style="fill:#705ba1;fill-opacity:1;stroke:none;fill-rule:nonzero"/>
    <g>
     <g>
      <path d="m 42.86 13.195 2.947 -2.586 3.234 3.521 3.525 -3.165 3.238 3.887 4.315 -3.887 3.164 2.374 2.301 -2.299 2.73 1.981" transform="matrix(0.791266,0,0,0.735645,-19.855015,20.551191)" style="stroke-opacity:1;fill:none;stroke-miterlimit:4;stroke:#452f58;stroke-linecap:butt;stroke-linejoin:miter;stroke-width:1"/>
     </g>
    </g>
   </g>
  </g>
 </g>
 <g>
  
 </g>
</svg>
